public/img/Cloud.svg

<svg xmlns="http://www.w3.org/2000/svg" width="1674" height="975" fill="none"><g filter="url(#a)"><g clip-path="url(#b)"><rect width="1600" height="900" x="42" y="35" fill="#16B2D4" rx="32"/><path fill="url(#c)" fill-opacity=".2" d="M1641 935h1599v900H1641z" style="mix-blend-mode:color-burn" transform="rotate(180 1641 935)"/><path fill="#16B2D4" d="M440 413h181v216H440zM695 276h280v236H695zM1043 593h171v163h-171z"/><path fill="#fff" fill-opacity=".8" d="M1021.07 783C972.7 783 934 744.286 934 695.893c0-37.505 24.188-70.17 58.05-81.663v-5.444c0-53.232 42.93-96.786 96.75-96.786 35.68 0 67.12 19.962 83.45 48.998 9.07-6.654 20.56-10.284 32.65-10.284 32.05 0 58.05 26.011 58.05 58.072 0 7.864-1.81 14.518-4.23 21.172 35.67 7.259 62.28 38.714 62.28 75.613 0 42.949-35.07 77.429-77.4 77.429zm47.78-131.266c-6.05 6.049-6.05 15.123 0 20.567 5.44 6.049 14.51 6.049 19.95 0l23.58-23.591.61 81.058c0 8.469 6.04 14.518 14.51 14.518 7.86 0 14.51-6.049 14.51-14.518V648.71l23.59 23.591c5.44 6.049 14.51 6.049 19.95 0 6.05-5.444 6.05-14.518 0-20.567l-48.38-48.392c-5.44-5.445-14.51-5.445-19.95 0zM697.925 528C636.3 528 587 478.714 587 417.107c0-47.745 30.812-89.33 73.95-103.962v-6.931C660.95 238.446 715.642 183 784.2 183c45.448 0 85.505 25.413 106.303 62.377 11.555-8.471 26.191-13.091 41.597-13.091 40.827 0 73.95 33.114 73.95 73.928 0 10.011-2.31 18.482-5.39 26.953 45.45 9.241 79.34 49.286 79.34 96.262 0 54.676-44.68 98.571-98.6 98.571zm12.325-215.625v24.643c0 17.712 13.095 30.803 30.812 30.803h12.325c16.947 0 30.813-13.091 30.813-30.803v-24.643c0-16.942-13.866-30.804-30.813-30.804h-12.325c-17.717 0-30.812 13.862-30.812 30.804m30.812-6.161h12.325c3.082 0 6.163 3.081 6.163 6.161v24.643c0 3.85-3.081 6.161-6.163 6.161h-12.325c-3.851 0-6.162-2.311-6.162-6.161v-24.643c0-3.08 2.311-6.161 6.162-6.161m67.788-12.321c0 6.931 5.392 12.321 12.325 12.321V355.5c0 6.931 5.392 12.321 12.325 12.321 6.163 0 12.325-5.39 12.325-12.321v-61.607c0-6.161-6.162-12.322-12.325-12.322h-12.325c-6.933 0-12.325 6.161-12.325 12.322m104.762-12.322c-17.717 0-30.812 13.862-30.812 30.804v24.643c0 17.712 13.095 30.803 30.812 30.803h12.326c16.946 0 30.812-13.091 30.812-30.803v-24.643c0-16.942-13.866-30.804-30.812-30.804zm-6.162 30.804c0-3.08 2.311-6.161 6.162-6.161h12.326c3.081 0 6.162 3.081 6.162 6.161v24.643c0 3.85-3.081 6.161-6.162 6.161h-12.326c-3.851 0-6.162-2.311-6.162-6.161zm-184.875 92.411c0 6.931 5.392 12.321 12.325 12.321v49.286c0 6.931 5.392 12.321 12.325 12.321 6.162 0 12.325-5.39 12.325-12.321v-61.607c0-6.161-6.163-12.322-12.325-12.322H734.9c-6.933 0-12.325 6.161-12.325 12.322m73.95 18.482v24.643c0 17.712 13.095 30.803 30.812 30.803h12.325c16.947 0 30.813-13.091 30.813-30.803v-24.643c0-16.942-13.866-30.804-30.813-30.804h-12.325c-17.717 0-30.812 13.862-30.812 30.804m30.812-6.161h12.325c3.082 0 6.163 3.081 6.163 6.161v24.643c0 3.85-3.081 6.16-6.163 6.16h-12.325c-3.851 0-6.162-2.31-6.162-6.16v-24.643c0-3.08 2.311-6.161 6.162-6.161m80.113-24.643c-6.933 0-12.325 6.161-12.325 12.322 0 6.931 5.392 12.321 12.325 12.321v49.286c0 6.931 5.392 12.321 12.325 12.321 6.163 0 12.325-5.39 12.325-12.321v-61.607c0-6.161-6.162-12.322-12.325-12.322z"/><path fill="#fff" fill-opacity=".8" d="M489.4 339c42.499 0 79.954 23.793 99.403 58.399 10.804-7.93 24.491-12.256 38.897-12.256 38.177 0 69.15 31.002 69.15 69.214 0 9.373-2.161 17.304-5.042 25.235C734.306 488.244 766 525.734 766 569.714c0 51.19-41.778 92.286-92.2 92.286H408.725C351.1 662 305 615.857 305 558.179c0-44.701 28.813-83.635 69.15-97.333v-6.489C374.15 390.911 425.293 339 489.4 339m33.1 107c-4.641 0-8.25 3.867-8.25 8.25v16.5h-30.938c-10.312 0-18.562 8.508-18.562 18.562v70.126A18.485 18.485 0 0 0 483.312 578h78.376c10.054 0 18.562-8.25 18.562-18.562v-70.126c0-10.054-8.508-18.562-18.562-18.562H530.75v-16.5c0-4.383-3.867-8.25-8.25-8.25m-70.125 57.75c-6.961 0-12.375 5.672-12.375 12.375v24.75c0 6.961 5.414 12.375 12.375 12.375h4.125v-49.5zm49.5 41.25c2.063 0 4.125 2.062 4.125 4.125 0 2.32-2.062 4.125-4.125 4.125h-8.25c-2.32 0-4.125-1.805-4.125-4.125 0-2.063 1.805-4.125 4.125-4.125zm24.75 0c2.063 0 4.125 2.062 4.125 4.125 0 2.32-2.062 4.125-4.125 4.125h-8.25c-2.32 0-4.125-1.805-4.125-4.125 0-2.063 1.805-4.125 4.125-4.125zm24.75 0c2.063 0 4.125 2.062 4.125 4.125 0 2.32-2.062 4.125-4.125 4.125h-8.25c-2.32 0-4.125-1.805-4.125-4.125 0-2.063 1.805-4.125 4.125-4.125zm37.125-41.25v49.5h4.125c6.703 0 12.375-5.414 12.375-12.375v-24.75c0-6.703-5.672-12.375-12.375-12.375zm-95.906-.516c3.094-1.804 6.961-1.804 10.312 0 3.094 1.805 5.156 5.157 5.156 8.766 0 3.867-2.062 7.219-5.156 9.023-3.351 1.805-7.218 1.805-10.312 0-3.352-1.804-5.156-5.156-5.156-9.023 0-3.609 1.804-6.961 5.156-8.766m54.656-1.546c3.609 0 6.961 2.062 8.766 5.156 1.804 3.351 1.804 7.218 0 10.312-1.805 3.352-5.157 5.156-8.766 5.156-3.867 0-7.219-1.804-9.023-5.156-1.805-3.094-1.805-6.961 0-10.312a10.4 10.4 0 0 1 9.023-5.156"/></g></g><defs><linearGradient id="c" x1="2568.99" x2="2568.99" y1="1044.64" y2="1795.03" gradientUnits="userSpaceOnUse"><stop stop-color="#fff"/><stop offset="1" stop-color="#A0A0A0"/></linearGradient><clipPath id="b"><rect width="1600" height="900" x="42" y="35" fill="#fff" rx="32"/></clipPath><filter id="a" width="1673.44" height="973.44" x=".333" y=".753" color-interpolation-filters="sRGB" filterUnits="userSpaceOnUse"><feFlood flood-opacity="0" result="BackgroundImageFix"/><feColorMatrix in="SourceAlpha" result="hardAlpha" values="0 0 0 0 0 0 0 0 0 0 0 0 0 0 0 0 0 0 127 0"/><feOffset dx="-4.947" dy="2.473"/><feGaussianBlur stdDeviation="18.36"/><feComposite in2="hardAlpha" operator="out"/><feColorMatrix values="0 0 0 0 0 0 0 0 0 0 0 0 0 0 0 0 0 0 0.1 0"/><feBlend in2="BackgroundImageFix" result="effect1_dropShadow_785_2366"/><feBlend in="SourceGraphic" in2="effect1_dropShadow_785_2366" result="shape"/></filter></defs></svg>

<svg width="1674" height="975" viewBox="0 0 1674 975" fill="none" xmlns="http://www.w3.org/2000/svg">
<g filter="url(#filter0_d_785_2366)">
<g clip-path="url(#clip0_785_2366)">
<rect x="42" y="35" width="1600" height="900" rx="32" fill="#16B2D4"/>
<g style="mix-blend-mode:color-burn">
<rect x="1641" y="935" width="1599" height="900" transform="rotate(180 1641 935)" fill="url(#paint0_linear_785_2366)" fill-opacity="0.2"/>
</g>
<rect x="440" y="413" width="181" height="216" fill="#16B2D4"/>
<rect x="695" y="276" width="280" height="236" fill="#16B2D4"/>
<rect x="1043" y="593" width="171" height="163" fill="#16B2D4"/>
<path d="M1021.07 783C972.7 783 934 744.286 934 695.893C934 658.388 958.188 625.723 992.05 614.23C992.05 612.415 992.05 610.6 992.05 608.786C992.05 555.554 1034.98 512 1088.8 512C1124.48 512 1155.92 531.962 1172.25 560.998C1181.32 554.344 1192.81 550.714 1204.9 550.714C1236.95 550.714 1262.95 576.725 1262.95 608.786C1262.95 616.65 1261.14 623.304 1258.72 629.958C1294.39 637.217 1321 668.672 1321 705.571C1321 748.52 1285.93 783 1243.6 783H1021.07ZM1068.85 651.734C1062.8 657.783 1062.8 666.857 1068.85 672.301C1074.29 678.35 1083.36 678.35 1088.8 672.301L1112.38 648.71L1112.99 729.768C1112.99 738.237 1119.03 744.286 1127.5 744.286C1135.36 744.286 1142.01 738.237 1142.01 729.768V648.71L1165.6 672.301C1171.04 678.35 1180.11 678.35 1185.55 672.301C1191.6 666.857 1191.6 657.783 1185.55 651.734L1137.17 603.342C1131.73 597.897 1122.66 597.897 1117.22 603.342L1068.85 651.734Z" fill="white" fill-opacity="0.8"/>
<path d="M697.925 528C636.3 528 587 478.714 587 417.107C587 369.362 617.812 327.777 660.95 313.145C660.95 310.835 660.95 308.525 660.95 306.214C660.95 238.446 715.642 183 784.2 183C829.648 183 869.705 208.413 890.503 245.377C902.058 236.906 916.694 232.286 932.1 232.286C972.927 232.286 1006.05 265.4 1006.05 306.214C1006.05 316.225 1003.74 324.696 1000.66 333.167C1046.11 342.408 1080 382.453 1080 429.429C1080 484.105 1035.32 528 981.4 528H697.925ZM710.25 312.375V337.018C710.25 354.73 723.345 367.821 741.062 367.821H753.387C770.334 367.821 784.2 354.73 784.2 337.018V312.375C784.2 295.433 770.334 281.571 753.387 281.571H741.062C723.345 281.571 710.25 295.433 710.25 312.375ZM741.062 306.214H753.387C756.469 306.214 759.55 309.295 759.55 312.375V337.018C759.55 340.868 756.469 343.179 753.387 343.179H741.062C737.211 343.179 734.9 340.868 734.9 337.018V312.375C734.9 309.295 737.211 306.214 741.062 306.214ZM808.85 293.893C808.85 300.824 814.242 306.214 821.175 306.214V355.5C821.175 362.431 826.567 367.821 833.5 367.821C839.663 367.821 845.825 362.431 845.825 355.5V293.893C845.825 287.732 839.663 281.571 833.5 281.571H821.175C814.242 281.571 808.85 287.732 808.85 293.893ZM913.612 281.571C895.895 281.571 882.8 295.433 882.8 312.375V337.018C882.8 354.73 895.895 367.821 913.612 367.821H925.938C942.884 367.821 956.75 354.73 956.75 337.018V312.375C956.75 295.433 942.884 281.571 925.938 281.571H913.612ZM907.45 312.375C907.45 309.295 909.761 306.214 913.612 306.214H925.938C929.019 306.214 932.1 309.295 932.1 312.375V337.018C932.1 340.868 929.019 343.179 925.938 343.179H913.612C909.761 343.179 907.45 340.868 907.45 337.018V312.375ZM722.575 404.786C722.575 411.717 727.967 417.107 734.9 417.107V466.393C734.9 473.324 740.292 478.714 747.225 478.714C753.387 478.714 759.55 473.324 759.55 466.393V404.786C759.55 398.625 753.387 392.464 747.225 392.464H734.9C727.967 392.464 722.575 398.625 722.575 404.786ZM796.525 423.268V447.911C796.525 465.623 809.62 478.714 827.337 478.714H839.662C856.609 478.714 870.475 465.623 870.475 447.911V423.268C870.475 406.326 856.609 392.464 839.662 392.464H827.337C809.62 392.464 796.525 406.326 796.525 423.268ZM827.337 417.107H839.662C842.744 417.107 845.825 420.188 845.825 423.268V447.911C845.825 451.761 842.744 454.071 839.662 454.071H827.337C823.486 454.071 821.175 451.761 821.175 447.911V423.268C821.175 420.188 823.486 417.107 827.337 417.107ZM907.45 392.464C900.517 392.464 895.125 398.625 895.125 404.786C895.125 411.717 900.517 417.107 907.45 417.107V466.393C907.45 473.324 912.842 478.714 919.775 478.714C925.938 478.714 932.1 473.324 932.1 466.393V404.786C932.1 398.625 925.938 392.464 919.775 392.464H907.45Z" fill="white" fill-opacity="0.8"/>
<path d="M489.4 339C531.899 339 569.354 362.793 588.803 397.399C599.607 389.469 613.294 385.143 627.7 385.143C665.877 385.143 696.85 416.145 696.85 454.357C696.85 463.73 694.689 471.661 691.808 479.592C734.306 488.244 766 525.734 766 569.714C766 620.904 724.222 662 673.8 662H408.725C351.1 662 305 615.857 305 558.179C305 513.478 333.813 474.544 374.15 460.846V454.357C374.15 390.911 425.293 339 489.4 339ZM522.5 446C517.859 446 514.25 449.867 514.25 454.25V470.75H483.312C473 470.75 464.75 479.258 464.75 489.312V559.438C464.75 569.75 473 578 483.312 578H561.688C571.742 578 580.25 569.75 580.25 559.438V489.312C580.25 479.258 571.742 470.75 561.688 470.75H530.75V454.25C530.75 449.867 526.883 446 522.5 446ZM452.375 503.75C445.414 503.75 440 509.422 440 516.125V540.875C440 547.836 445.414 553.25 452.375 553.25H456.5V503.75H452.375ZM501.875 545C503.938 545 506 547.062 506 549.125C506 551.445 503.938 553.25 501.875 553.25H493.625C491.305 553.25 489.5 551.445 489.5 549.125C489.5 547.062 491.305 545 493.625 545H501.875ZM526.625 545C528.688 545 530.75 547.062 530.75 549.125C530.75 551.445 528.688 553.25 526.625 553.25H518.375C516.055 553.25 514.25 551.445 514.25 549.125C514.25 547.062 516.055 545 518.375 545H526.625ZM551.375 545C553.438 545 555.5 547.062 555.5 549.125C555.5 551.445 553.438 553.25 551.375 553.25H543.125C540.805 553.25 539 551.445 539 549.125C539 547.062 540.805 545 543.125 545H551.375ZM588.5 503.75V553.25H592.625C599.328 553.25 605 547.836 605 540.875V516.125C605 509.422 599.328 503.75 592.625 503.75H588.5ZM492.594 503.234C495.688 501.43 499.555 501.43 502.906 503.234C506 505.039 508.062 508.391 508.062 512C508.062 515.867 506 519.219 502.906 521.023C499.555 522.828 495.688 522.828 492.594 521.023C489.242 519.219 487.438 515.867 487.438 512C487.438 508.391 489.242 505.039 492.594 503.234ZM547.25 501.688C550.859 501.688 554.211 503.75 556.016 506.844C557.82 510.195 557.82 514.062 556.016 517.156C554.211 520.508 550.859 522.312 547.25 522.312C543.383 522.312 540.031 520.508 538.227 517.156C536.422 514.062 536.422 510.195 538.227 506.844C540.031 503.75 543.383 501.688 547.25 501.688Z" fill="white" fill-opacity="0.8"/>
</g>
</g>
<defs>
<filter id="filter0_d_785_2366" x="0.333432" y="0.753282" width="1673.44" height="973.44" filterUnits="userSpaceOnUse" color-interpolation-filters="sRGB">
<feFlood flood-opacity="0" result="BackgroundImageFix"/>
<feColorMatrix in="SourceAlpha" type="matrix" values="0 0 0 0 0 0 0 0 0 0 0 0 0 0 0 0 0 0 127 0" result="hardAlpha"/>
<feOffset dx="-4.94657" dy="2.47328"/>
<feGaussianBlur stdDeviation="18.36"/>
<feComposite in2="hardAlpha" operator="out"/>
<feColorMatrix type="matrix" values="0 0 0 0 0 0 0 0 0 0 0 0 0 0 0 0 0 0 0.1 0"/>
<feBlend mode="normal" in2="BackgroundImageFix" result="effect1_dropShadow_785_2366"/>
<feBlend mode="normal" in="SourceGraphic" in2="effect1_dropShadow_785_2366" result="shape"/>
</filter>
<linearGradient id="paint0_linear_785_2366" x1="2568.99" y1="1044.64" x2="2568.99" y2="1795.03" gradientUnits="userSpaceOnUse">
<stop stop-color="white"/>
<stop offset="1" stop-color="#A0A0A0"/>
</linearGradient>
<clipPath id="clip0_785_2366">
<rect x="42" y="35" width="1600" height="900" rx="32" fill="white"/>
</clipPath>
</defs>
</svg>
